X:20
T:Miss Gordon of Abergeldie's Jigg
C:Robert Petrie
S:Petrie's Collection of Strathspey Reels and Country Dances &c., 1790
Z:Steve Wyrick , 3/6/04
N:Petrie's First Collection, page 9
L:1/8
M:6/8
R:Jig
K:C
f|edc      dBG|cAF      GEC|DFA  dfe|dag fed |
  edc      dBG|cAF      GEC|Ege  fdB|c3  c2 :|
e|ceg      gec|(B/c/d)d def|efg Tf2e|dec BAG |
  ceg      gec|(B/c/d)d def|efg  fed|cGE C2c |
  ceg      gec|(B/c/d)d def|efg Tf2e|dec BAG |
 [G,3E3c3] cGE|[G3c3e3] cGE|gec  fed|c3  c2 |]
